X:1
T:Coahuila, CM
T:Coahuila, CM
T:Oscar A. Miller, 1899
T:Public Domain Courtesy of the Cyber Hymnal™
C:Oscar A. Miller, 1899
Z:Public Domain
Z:Courtesy of the Cyber Hymnal™
%%score ( 1 2 ) ( 3 4 )
L:1/8
Q:1/4=100
M:none
K:F
V:1 treble 
V:2 treble 
V:3 bass 
V:4 bass 
V:1
 [FA]2 [EG]F [CE]3 [GB] | [GB]2 ([FA][EG]) [FA]3 [FA] | [Fd]3 [Fc] [Fc]2 [F=B]2 | [Ec]6 z2 | %4
 [FA]2 [EG]F [Ec]3 [Ed] | (cA) ([GB][Ec]) [FA]3 [FA] | G2 B[Fd] c A2 [EG] | [FA]6 z2 |] %8
V:2
 x3 F x4 | x8 | x8 | x8 | x3 F x4 | F2 x6 | D3 F3 x2 | x8 |] %8
V:3
 [F,C]2 [G,C][A,C] [G,B,]3 [E,C] | [C,C]2 [C,C]2 [F,C]3 [F,C] | B,3 [A,C] ([A,C][F,A,]) G,2 | %3
 (G,4 C2) z2 | [F,C]2 [G,C][A,C] [B,C]3 [B,C] | C2 C2 [F,C]3 [F,C] | %6
 [B,,B,]3 [=B,,^G,] A, C2 [C,C] | [F,C]6 z2 |] %8
V:4
 x8 | x8 | B,3 (D, G,,) x3 | C,6 x2 | x8 | (A,F,) (E,C,) x4 | x4 C,3 x | x8 |] %8

